icons/bokeh-dark.svg

<svg width="256" height="256" viewBox="0 0 256 256" fill="none" xmlns="http://www.w3.org/2000/svg">
<path d="M196 0H60C26.8629 0 0 26.8629 0 60V196C0 229.137 26.8629 256 60 256H196C229.137 256 256 229.137 256 196V60C256 26.8629 229.137 0 196 0Z" fill="#282828"/>
<path d="M160.039 52.3717C157.451 48.9734 154.69 45.7102 151.767 42.5951C142.653 32.9081 137.782 30.9921 134.917 30.4012C133.147 30.0674 131.345 29.9412 129.545 30.0252C121.846 30.3833 116.582 34.448 111.926 38.0291C107.229 41.6566 103.132 46.0013 99.786 50.9034C99.707 51.0331 99.6637 51.1813 99.6607 51.3332V98.0674C99.6601 98.2054 99.6985 98.3407 99.7713 98.4579C99.8441 98.5751 99.9485 98.6693 100.072 98.7299C100.184 98.7553 100.301 98.7553 100.413 98.7299C100.574 98.7368 100.733 98.6861 100.86 98.5867L159.95 53.3386C160.08 53.216 160.161 53.0501 160.177 52.8721C160.194 52.694 160.145 52.5161 160.039 52.3717Z" fill="#23B355"/>
<path d="M201.885 63.7599C200.868 62.2479 199.665 60.8702 198.303 59.6595C192.609 54.4668 186.002 53.6073 180.183 52.8553C174.294 52.1046 168.324 52.2859 162.492 53.3925C162.346 53.4093 162.212 53.4795 162.116 53.5894L129.097 86.6436C128.999 86.7427 128.93 86.8672 128.898 87.0031C128.867 87.1391 128.874 87.2812 128.918 87.4135C128.961 87.5464 129.042 87.6641 129.15 87.7529C129.257 87.8417 129.388 87.8979 129.527 87.9149L203.281 97.6915H203.389C203.568 97.6891 203.74 97.6228 203.875 97.5046C204.009 97.3865 204.097 97.2241 204.123 97.0469C204.696 92.8125 205.049 88.5511 205.179 84.28C205.591 70.9939 203.496 66.213 201.885 63.7599Z" fill="#02ABAF"/>
<path d="M225.986 129.367C225.628 121.667 221.563 116.403 217.982 111.747C214.359 107.051 210.013 102.959 205.108 99.6252C204.983 99.5334 204.833 99.4832 204.678 99.482H157.944C157.803 99.4808 157.666 99.5209 157.548 99.5973C157.43 99.6737 157.337 99.783 157.281 99.9117C157.212 100.028 157.175 100.161 157.175 100.297C157.175 100.432 157.212 100.565 157.281 100.682L202.529 159.771C202.586 159.851 202.658 159.919 202.742 159.971C202.826 160.022 202.92 160.055 203.017 160.069C203.115 160.082 203.214 160.075 203.309 160.049C203.403 160.022 203.492 159.976 203.568 159.914C206.97 157.331 210.234 154.57 213.344 151.642C223.032 142.528 224.947 137.657 225.538 134.792C225.899 133.008 226.049 131.187 225.986 129.367Z" fill="#4998D3"/>
<path d="M202.512 162.368C202.491 162.224 202.421 162.091 202.315 161.992L169.279 128.938C169.18 128.839 169.055 128.77 168.919 128.739C168.783 128.707 168.641 128.714 168.509 128.759C168.376 128.802 168.258 128.882 168.169 128.99C168.081 129.098 168.024 129.229 168.007 129.367L158.231 203.122C158.205 203.318 158.259 203.518 158.38 203.675C158.5 203.833 158.679 203.936 158.875 203.963C163.119 204.536 167.416 204.894 171.642 205.037H174.865C185.734 205.037 189.924 203.247 192.162 201.707C193.671 200.686 195.048 199.483 196.263 198.126C201.455 192.432 202.315 185.824 203.067 180.005C203.806 174.133 203.619 168.182 202.512 162.368Z" fill="#8A278A"/>
<path d="M156.046 157.121C155.927 157.05 155.791 157.013 155.652 157.013C155.513 157.013 155.377 157.05 155.258 157.121L96.1687 202.369C96.0903 202.427 96.0243 202.501 95.9745 202.585C95.9248 202.669 95.8923 202.762 95.879 202.858C95.8656 202.955 95.8717 203.053 95.8969 203.148C95.922 203.242 95.9657 203.33 96.0254 203.408C98.6084 206.81 101.37 210.074 104.298 213.184C113.412 222.871 118.282 224.787 121.147 225.378C122.569 225.655 124.014 225.793 125.463 225.79H126.555C134.254 225.45 139.519 221.385 144.174 217.786C148.88 214.168 152.978 209.822 156.314 204.912C156.393 204.782 156.437 204.634 156.44 204.482V157.748C156.435 157.618 156.397 157.491 156.327 157.381C156.258 157.271 156.161 157.181 156.046 157.121Z" fill="#ED1557"/>
<path d="M127.163 168.348C127.12 168.215 127.04 168.097 126.932 168.008C126.824 167.919 126.693 167.863 126.555 167.846L52.8005 158.016C52.6035 157.991 52.4045 158.044 52.2468 158.165C52.0892 158.286 51.9857 158.464 51.9589 158.661C51.3859 162.904 51.0278 167.202 50.8846 171.427C50.4907 184.714 52.6752 189.512 54.1972 191.948C55.2136 193.46 56.4168 194.837 57.7783 196.048C63.4724 201.241 70.0796 202.1 75.899 202.852C78.2739 203.162 80.6664 203.318 83.0614 203.318C86.6123 203.312 90.155 202.976 93.6437 202.315C93.7877 202.294 93.9202 202.224 94.0198 202.118L127.074 169.064C127.148 168.962 127.195 168.842 127.21 168.717C127.226 168.592 127.21 168.465 127.163 168.348Z" fill="#F05223"/>
<path d="M98.6577 155.098L53.4097 96.009C53.3515 95.9306 53.2783 95.8646 53.1943 95.8149C53.1103 95.7651 53.0172 95.7326 52.9205 95.7193C52.8238 95.7059 52.7254 95.712 52.6311 95.7372C52.5367 95.7623 52.4484 95.806 52.3712 95.8657C48.9728 98.4541 45.7097 101.215 42.5946 104.138C32.9075 113.252 30.9916 118.123 30.4007 120.988C30.068 122.758 29.9418 124.56 30.0247 126.359C30.3828 134.059 34.4295 139.323 38.0286 143.979C41.6561 148.676 46.0007 152.773 50.9029 156.119C51.0325 156.198 51.1808 156.241 51.3326 156.244H98.0668C98.2048 156.245 98.3401 156.206 98.4573 156.134C98.5745 156.061 98.6688 155.956 98.7293 155.832C98.7798 155.714 98.7997 155.584 98.7872 155.456C98.7747 155.328 98.7302 155.205 98.6577 155.098Z" fill="#F7AA1B"/>
<path d="M97.207 51.7984C92.9726 51.2249 88.7112 50.8723 84.4402 50.742C71.154 50.3302 66.3732 52.4251 63.9201 54.0367C62.4098 55.0553 61.0323 56.2583 59.8196 57.6178C54.627 63.3119 53.7675 69.9191 53.0154 75.7385C52.2648 81.6272 52.4461 87.5973 53.5526 93.4295C53.5741 93.5786 53.6431 93.7168 53.7496 93.8234L86.8038 126.86C86.8714 126.929 86.9522 126.983 87.0414 127.02C87.1307 127.057 87.2264 127.076 87.323 127.075C87.4057 127.092 87.491 127.092 87.5737 127.075C87.7065 127.031 87.8243 126.951 87.9131 126.843C88.0019 126.735 88.0581 126.604 88.0751 126.466L97.8517 52.7116C97.875 52.6088 97.8764 52.5023 97.8559 52.3989C97.8354 52.2956 97.7934 52.1976 97.7326 52.1115C97.6719 52.0254 97.5937 51.9531 97.5031 51.8991C97.4126 51.8452 97.3117 51.8109 97.207 51.7984Z" fill="#A6CE38"/>
</svg>

<svg xmlns="http://www.w3.org/2000/svg" width="256" height="256" fill="none"><path fill="#282828" d="M196 0H60C26.863 0 0 26.863 0 60v136c0 33.137 26.863 60 60 60h136c33.137 0 60-26.863 60-60V60c0-33.137-26.863-60-60-60"/><path fill="#23B355" d="M160.039 52.372a125 125 0 0 0-8.272-9.777c-9.114-9.687-13.985-11.603-16.85-12.194a23.2 23.2 0 0 0-5.372-.376c-7.699.358-12.963 4.423-17.619 8.004a56.5 56.5 0 0 0-12.14 12.874.86.86 0 0 0-.125.43v46.734a.73.73 0 0 0 .411.663.8.8 0 0 0 .341 0 .68.68 0 0 0 .447-.143l59.09-45.248a.73.73 0 0 0 .089-.967"/><path fill="#02ABAF" d="M201.885 63.76a21.7 21.7 0 0 0-3.582-4.1c-5.694-5.193-12.301-6.053-18.12-6.805a56.5 56.5 0 0 0-17.691.538.6.6 0 0 0-.376.196l-33.019 33.055a.76.76 0 0 0-.179.77.73.73 0 0 0 .609.5l73.754 9.778h.108a.75.75 0 0 0 .734-.645 123 123 0 0 0 1.056-12.767c.412-13.286-1.683-18.067-3.294-20.52"/><path fill="#4998D3" d="M225.986 129.367c-.358-7.7-4.423-12.964-8.004-17.62a56 56 0 0 0-12.874-12.122.74.74 0 0 0-.43-.143h-46.734a.72.72 0 0 0-.663.43.76.76 0 0 0 0 .77l45.248 59.089q.086.121.213.2a.73.73 0 0 0 .567.078.7.7 0 0 0 .259-.135 121 121 0 0 0 9.776-8.272c9.688-9.114 11.603-13.985 12.194-16.85.361-1.784.511-3.605.448-5.425"/><path fill="#8A278A" d="M202.512 162.368a.64.64 0 0 0-.197-.376l-33.036-33.054a.74.74 0 0 0-.36-.199.74.74 0 0 0-.41.02.73.73 0 0 0-.502.608l-9.776 73.755a.75.75 0 0 0 .644.841c4.244.573 8.541.931 12.767 1.074h3.223c10.869 0 15.059-1.79 17.297-3.33a22.2 22.2 0 0 0 4.101-3.581c5.192-5.694 6.052-12.302 6.804-18.121a56.5 56.5 0 0 0-.555-17.637"/><path fill="#ED1557" d="M156.046 157.121a.77.77 0 0 0-.788 0l-59.09 45.248a.735.735 0 0 0-.143 1.039 121 121 0 0 0 8.273 9.776c9.114 9.687 13.984 11.603 16.849 12.194 1.422.277 2.867.415 4.316.412h1.092c7.699-.34 12.964-4.405 17.619-8.004a55.8 55.8 0 0 0 12.14-12.874.86.86 0 0 0 .126-.43v-46.734a.74.74 0 0 0-.394-.627"/><path fill="#F05223" d="M127.163 168.348a.73.73 0 0 0-.608-.502l-73.754-9.83a.753.753 0 0 0-.842.645 128 128 0 0 0-1.074 12.766c-.394 13.287 1.79 18.085 3.312 20.521a21.7 21.7 0 0 0 3.581 4.1c5.694 5.193 12.302 6.052 18.121 6.804 2.375.31 4.767.466 7.162.466a57.4 57.4 0 0 0 10.583-1.003.65.65 0 0 0 .376-.197l33.054-33.054a.74.74 0 0 0 .089-.716"/><path fill="#F7AA1B" d="M98.658 155.098 53.41 96.009a.733.733 0 0 0-1.039-.143 125 125 0 0 0-9.776 8.272c-9.687 9.114-11.603 13.985-12.194 16.85a23.3 23.3 0 0 0-.376 5.371c.358 7.7 4.404 12.964 8.004 17.62a56.5 56.5 0 0 0 12.874 12.14.86.86 0 0 0 .43.125h46.734a.74.74 0 0 0 .662-.412.77.77 0 0 0-.071-.734"/><path fill="#A6CE38" d="M97.207 51.798a123 123 0 0 0-12.767-1.056c-13.286-.412-18.067 1.683-20.52 3.295a22 22 0 0 0-4.1 3.58c-5.193 5.695-6.053 12.302-6.805 18.122a56.6 56.6 0 0 0 .538 17.69c.021.15.09.288.197.394l33.054 33.037a.72.72 0 0 0 .519.215.6.6 0 0 0 .25 0 .74.74 0 0 0 .502-.609l9.777-73.754a.75.75 0 0 0-.645-.914"/></svg>
